src/front_end/assets/images/svg/icon_pie_chart_tasks-selected.svg

<svg xmlns="http://www.w3.org/2000/svg" width="18" height="16" viewBox="0 0 18 16"><path fill="#14B9D6" d="M3 .38v2.287c0 .113-.035.205-.104.275-.07.07-.16.106-.27.106H.376c-.113 0-.203-.036-.273-.106S0 2.78 0 2.667V.38C0 .27.035.178.104.107.174.037.264 0 .374 0h2.25c.112 0 .202.035.272.105C2.966.177 3 .27 3 .38zm0 6.477v2.286c0 .113-.035.204-.104.274-.07.072-.16.106-.27.106H.376c-.113 0-.203-.035-.273-.106-.07-.07-.104-.16-.104-.273V6.857c0-.112.03-.204.1-.275.07-.07.16-.106.27-.106h2.25c.11 0 .2.035.27.106.07.07.1.163.1.275zm0 6.477v2.286c0 .113-.035.204-.104.275-.07.07-.16.105-.27.105H.376c-.113 0-.203-.035-.273-.106-.07-.07-.104-.162-.104-.274v-2.286c0-.113.03-.205.1-.275.07-.07.16-.11.27-.11h2.25c.11 0 .2.03.27.1s.1.16.1.27zM18 .38v2.287c0 .113-.035.205-.104.275s-.16.106-.27.106H4.876c-.113 0-.203-.036-.273-.106S4.5 2.78 4.5 2.667V.38c0-.11.035-.203.104-.274.07-.07.16-.106.27-.106h12.75c.112 0 .202.035.272.105.07.072.104.164.104.276zm0 6.477v2.286c0 .113-.035.204-.104.274-.07.072-.16.106-.27.106H4.876c-.113 0-.203-.035-.273-.106-.07-.07-.104-.16-.104-.273V6.857c0-.112.03-.204.1-.275.07-.07.16-.106.27-.106h12.75c.11 0 .2.035.27.106s.1.163.1.275zm0 6.477v2.286c0 .113-.035.204-.104.275-.07.07-.16.105-.27.105H4.876c-.113 0-.203-.035-.273-.106-.07-.07-.104-.162-.104-.274v-2.286c0-.113.03-.205.1-.275.07-.07.16-.11.27-.11h12.75c.11 0 .2.03.27.1s.1.16.1.27z"/></svg>

<?xml version="1.0" encoding="utf-8"?>
<!-- Generator: Adobe Illustrator 16.0.0, SVG Export Plug-In . SVG Version: 6.00 Build 0)  -->
<!DOCTYPE svg PUBLIC "-//W3C//DTD SVG 1.1//EN" "http://www.w3.org/Graphics/SVG/1.1/DTD/svg11.dtd">
<svg version="1.1" xmlns="http://www.w3.org/2000/svg" xmlns:xlink="http://www.w3.org/1999/xlink" x="0px" y="0px" width="18px"
	 height="16px" viewBox="0 0 18 16" enable-background="new 0 0 18 16" xml:space="preserve">
<g id="Layer_2">
</g>
<g id="Layer_1">
	<g>
		<path fill="#14B9D6" d="M3,0.381v2.286C3,2.78,2.965,2.872,2.896,2.942c-0.07,0.07-0.16,0.106-0.271,0.106h-2.25
			c-0.111,0-0.201-0.036-0.271-0.106C0.035,2.872,0,2.78,0,2.667V0.381c0-0.112,0.035-0.204,0.104-0.275
			C0.174,0.036,0.264,0,0.375,0h2.25c0.111,0,0.201,0.035,0.271,0.105C2.965,0.177,3,0.269,3,0.381z M3,6.857v2.286
			c0,0.113-0.035,0.204-0.104,0.274c-0.07,0.072-0.16,0.106-0.271,0.106h-2.25c-0.111,0-0.201-0.035-0.271-0.106
			C0.035,9.348,0,9.256,0,9.144V6.857c0-0.112,0.035-0.204,0.104-0.275c0.07-0.071,0.16-0.106,0.271-0.106h2.25
			c0.111,0,0.201,0.035,0.271,0.106C2.965,6.653,3,6.745,3,6.857z M3,13.334v2.286c0,0.113-0.035,0.204-0.104,0.275
			C2.826,15.966,2.736,16,2.625,16h-2.25c-0.111,0-0.201-0.035-0.271-0.106C0.035,15.824,0,15.732,0,15.62v-2.286
			c0-0.113,0.035-0.205,0.104-0.275c0.07-0.07,0.16-0.106,0.271-0.106h2.25c0.111,0,0.201,0.036,0.271,0.106
			C2.965,13.129,3,13.221,3,13.334z M18,0.381v2.286c0,0.113-0.035,0.205-0.104,0.275s-0.159,0.106-0.271,0.106H4.875
			c-0.111,0-0.201-0.036-0.271-0.106C4.535,2.872,4.5,2.78,4.5,2.667V0.381c0-0.112,0.035-0.204,0.104-0.275
			C4.674,0.036,4.764,0,4.875,0h12.75c0.111,0,0.201,0.035,0.271,0.105C17.965,0.177,18,0.269,18,0.381z M18,6.857v2.286
			c0,0.113-0.035,0.204-0.104,0.274c-0.069,0.072-0.159,0.106-0.271,0.106H4.875c-0.111,0-0.201-0.035-0.271-0.106
			C4.535,9.348,4.5,9.256,4.5,9.144V6.857c0-0.112,0.035-0.204,0.104-0.275c0.07-0.071,0.16-0.106,0.271-0.106h12.75
			c0.111,0,0.201,0.035,0.271,0.106S18,6.745,18,6.857z M18,13.334v2.286c0,0.113-0.035,0.204-0.104,0.275
			C17.826,15.966,17.736,16,17.625,16H4.875c-0.111,0-0.201-0.035-0.271-0.106C4.535,15.824,4.5,15.732,4.5,15.62v-2.286
			c0-0.113,0.035-0.205,0.104-0.275c0.07-0.07,0.16-0.106,0.271-0.106h12.75c0.111,0,0.201,0.036,0.271,0.106S18,13.221,18,13.334z"
			/>
	</g>
</g>
</svg>
